packages/react/src/components/base/Icon/assets/icon-person-simple-bike.svg

<svg width="24" height="24" viewBox="0 0 24 24" xmlns="http://www.w3.org/2000/svg" fill="currentColor"> <path d="M15.7499 8.62549C16.3433 8.62549 16.9233 8.44954 17.4167 8.1199C17.91 7.79025 18.2945 7.32172 18.5216 6.77354C18.7486 6.22536 18.8081 5.62216 18.6923 5.04022C18.5765 4.45828 18.2908 3.92373 17.8713 3.50417C17.4517 3.08461 16.9172 2.79889 16.3352 2.68313C15.7533 2.56738 15.1501 2.62679 14.6019 2.85385C14.0537 3.08091 13.5852 3.46543 13.2555 3.95878C12.9259 4.45213 12.7499 5.03215 12.7499 5.62549C12.7499 6.42114 13.066 7.1842 13.6286 7.74681C14.1912 8.30942 14.9543 8.62549 15.7499 8.62549ZM15.7499 4.87549C15.8983 4.87549 16.0433 4.91948 16.1666 5.00189C16.29 5.0843 16.3861 5.20143 16.4429 5.33848C16.4996 5.47552 16.5145 5.62632 16.4855 5.77181C16.4566 5.91729 16.3852 6.05093 16.2803 6.15582C16.1754 6.26071 16.0417 6.33214 15.8963 6.36108C15.7508 6.39002 15.6 6.37517 15.4629 6.3184C15.3259 6.26163 15.2087 6.1655 15.1263 6.04217C15.0439 5.91883 14.9999 5.77383 14.9999 5.62549C14.9999 5.42658 15.079 5.23581 15.2196 5.09516C15.3603 4.95451 15.551 4.87549 15.7499 4.87549ZM19.1249 13.8755C18.3833 13.8755 17.6582 14.0954 17.0416 14.5075C16.4249 14.9195 15.9442 15.5052 15.6604 16.1904C15.3766 16.8757 15.3023 17.6297 15.447 18.3571C15.5917 19.0845 15.9488 19.7527 16.4733 20.2771C16.9977 20.8016 17.6659 21.1587 18.3934 21.3034C19.1208 21.4481 19.8748 21.3739 20.56 21.09C21.2452 20.8062 21.8309 20.3256 22.243 19.7089C22.655 19.0922 22.8749 18.3672 22.8749 17.6255C22.8749 16.6309 22.4799 15.6771 21.7766 14.9738C21.0733 14.2706 20.1195 13.8755 19.1249 13.8755ZM19.1249 19.1255C18.8283 19.1255 18.5383 19.0375 18.2916 18.8727C18.0449 18.7079 17.8527 18.4736 17.7391 18.1995C17.6256 17.9254 17.5959 17.6238 17.6538 17.3329C17.7116 17.0419 17.8545 16.7746 18.0643 16.5648C18.2741 16.3551 18.5413 16.2122 18.8323 16.1543C19.1233 16.0964 19.4249 16.1261 19.699 16.2397C19.9731 16.3532 20.2073 16.5455 20.3721 16.7921C20.537 17.0388 20.6249 17.3288 20.6249 17.6255C20.6249 18.0233 20.4669 18.4048 20.1856 18.6862C19.9043 18.9675 19.5228 19.1255 19.1249 19.1255ZM5.06244 13.5005C4.28368 13.5005 3.5224 13.7314 2.87488 14.1641C2.22736 14.5967 1.72269 15.2117 1.42467 15.9312C1.12665 16.6507 1.04867 17.4424 1.2006 18.2062C1.35253 18.97 1.72754 19.6716 2.27821 20.2222C2.82888 20.7729 3.53047 21.1479 4.29427 21.2998C5.05807 21.4518 5.84977 21.3738 6.56926 21.0758C7.28874 20.7777 7.90369 20.2731 8.33635 19.6255C8.76901 18.978 8.99994 18.2168 8.99994 17.438C8.99994 16.3937 8.5851 15.3922 7.84667 14.6538C7.10825 13.9153 6.10673 13.5005 5.06244 13.5005ZM5.06244 19.1255C4.72868 19.1255 4.40242 19.0265 4.12492 18.8411C3.84741 18.6557 3.63112 18.3921 3.50339 18.0838C3.37567 17.7754 3.34225 17.4361 3.40737 17.1088C3.47248 16.7814 3.6332 16.4807 3.8692 16.2447C4.1052 16.0087 4.40588 15.848 4.73323 15.7829C5.06057 15.7178 5.39987 15.7512 5.70822 15.8789C6.01657 16.0067 6.28012 16.223 6.46555 16.5005C6.65097 16.778 6.74994 17.1042 6.74994 17.438C6.74994 17.8855 6.57215 18.3148 6.25568 18.6312C5.93922 18.9477 5.50999 19.1255 5.06244 19.1255ZM17.6249 12.7505H14.2499C14.1022 12.7506 13.9558 12.7216 13.8192 12.6651C13.6827 12.6087 13.5586 12.5259 13.454 12.4214L11.2499 10.2192L9.84369 11.6255L12.7987 14.5796C13.0086 14.7912 13.1259 15.0774 13.1249 15.3755V19.8755C13.1249 20.1739 13.0064 20.46 12.7954 20.671C12.5845 20.882 12.2983 21.0005 11.9999 21.0005C11.7016 21.0005 11.4154 20.882 11.2044 20.671C10.9935 20.46 10.8749 20.1739 10.8749 19.8755V15.8442L7.454 12.4214C7.34912 12.3169 7.26591 12.1927 7.20913 12.056C7.15234 11.9192 7.12312 11.7726 7.12312 11.6246C7.12312 11.4765 7.15234 11.3299 7.20913 11.1931C7.26591 11.0564 7.34912 10.9322 7.454 10.8277L10.454 7.82768C10.5585 7.7228 10.6827 7.63958 10.8195 7.5828C10.9562 7.52602 11.1028 7.49679 11.2509 7.49679C11.3989 7.49679 11.5456 7.52602 11.6823 7.5828C11.819 7.63958 11.9432 7.7228 12.0478 7.82768L14.7187 10.5005H17.6249C17.9233 10.5005 18.2095 10.619 18.4204 10.83C18.6314 11.041 18.7499 11.3271 18.7499 11.6255C18.7499 11.9239 18.6314 12.21 18.4204 12.421C18.2095 12.632 17.9233 12.7505 17.6249 12.7505Z"/> </svg>

<svg viewBox="0 0 24 24" xmlns="http://www.w3.org/2000/svg" aria-hidden="true" fill="currentColor"><path d="M15.75 8.625a3 3 0 1 0 0-6 3 3 0 0 0 0 6m0-3.75a.75.75 0 1 1 0 1.5.75.75 0 0 1 0-1.5m3.375 9a3.75 3.75 0 1 0 0 7.5 3.75 3.75 0 0 0 0-7.5m0 5.25a1.5 1.5 0 1 1 0-3 1.5 1.5 0 0 1 0 3M5.062 13.502a3.937 3.937 0 1 0 0 7.874 3.937 3.937 0 0 0 0-7.874m0 5.624a1.688 1.688 0 1 1 0-3.375 1.688 1.688 0 0 1 0 3.375m12.563-6.374H14.25a1.13 1.13 0 0 1-.796-.33L11.25 10.22l-1.406 1.407 2.955 2.954c.21.211.327.497.326.796v4.5a1.125 1.125 0 1 1-2.25 0v-4.032l-3.421-3.423a1.125 1.125 0 0 1 0-1.593l3-3a1.124 1.124 0 0 1 1.594 0l2.67 2.673h2.907a1.125 1.125 0 1 1 0 2.25"/></svg>
